packages/ui-icons/svg/Solid/gradebook.svg

<svg viewBox="0 0 1920 1920" version="1.1" xmlns="http://www.w3.org/2000/svg">
    <path d="M219.029412,0 L219.029412,225.882353 L219.029412,338.823529 L219.029412,464.313725 L162.514706,464.313725 C131.318588,464.313725 106,489.612549 106,520.784314 C106,551.956078 131.318588,577.254902 162.514706,577.254902 L219.029412,577.254902 L219.029412,916.078431 L162.514706,916.078431 C131.318588,916.078431 106,941.377255 106,972.54902 C106,1003.72078 131.318588,1029.01961 162.514706,1029.01961 L219.029412,1029.01961 L219.029412,1367.84314 L162.514706,1367.84314 C131.318588,1367.84314 106,1393.14196 106,1424.31373 C106,1455.48549 131.318588,1480.78431 162.514706,1480.78431 L219.029412,1480.78431 L219.029412,1920 L1801.44118,1920 L1801.44118,0 L219.029412,0 Z M1179.60784,338.823529 L1179.60784,451.764706 L671.372549,451.764706 L671.372549,1129.41176 L1349.01961,1129.41176 L1349.01961,734.117647 L1461.96078,734.117647 L1461.96078,1242.35294 L558.431373,1242.35294 L558.431373,338.823529 L1179.60784,338.823529 Z M1386.93396,414.640941 L1466.78337,494.490353 L1034.33161,926.942118 L809.465725,701.963294 L889.315137,622.113882 L1034.33161,767.243294 L1386.93396,414.640941 Z" stroke="none" stroke-width="1" fill-rule="evenodd"/>
</svg>

<svg viewBox="0 0 1920 1920" version="1.1" xmlns="http://www.w3.org/2000/svg">
    <path d="M219.03 0v464.314h-56.515c-31.196 0-56.515 25.299-56.515 56.47 0 31.172 25.319 56.47 56.515 56.47h56.514v338.824h-56.514c-31.196 0-56.515 25.3-56.515 56.471 0 31.172 25.319 56.47 56.515 56.47h56.514v338.824h-56.514c-31.196 0-56.515 25.299-56.515 56.47 0 31.172 25.319 56.471 56.515 56.471h56.514V1920h1582.412V0H219.03zm1242.93 734.118v508.235H558.432v-903.53h621.177v112.942H671.373v677.647h677.647V734.118h112.94zM889.316 622.114l145.017 145.13 352.602-352.603 79.85 79.85-432.452 432.451-224.866-224.979 79.85-79.85z" stroke="none" stroke-width="1" fill-rule="evenodd"/>
</svg>
